X: 621
P: Longways for as many as will
M: 3/2
L: 1/8
K: D
[|\
d4 A2 (de) (fe) (dc) | B2 G4 A2 F2 A2 |\
f3 e de fg a2 (gf) | e2 B2 ef (ed) c2 A2 |\
(AF) (AF) (BG) (BG) (cB) (cA) | (dB) (dB) (ef g2) (ga b2) |\
a4 A2 a2 A2 =c2 | B2 e2 A2 c2 d4 |]

